X:88
T:Hud y Bibell - The allurement of the Pipe
M:3/4
L:1/8
Q:120
C:Trad. arr. J.T.
S:Davidsons Musical Miracles 1859
R:Waltz
N:Compressed arrangement
K:G
B2 E2 F2 | G4 AA | B2 EG FE | E2 ^D2 E2 | =D2 D2 D2|
| Gd BG Ac | BA G2 F2 | G6 :||: B3 E Bd | c2 ^G2 A2|
G2 F2 E2 | ^DE FD B2 | B2 B2 B2 | EB GE FA | GF E 2 ^D2 | E6 :||
